svgs/sharp-light/bell-concierge.svg

<svg xmlns="http://www.w3.org/2000/svg" viewBox="0 0 512 512"><!--! Font Awesome Pro 6.5.2 by @fontawesome - https://fontawesome.com License - https://fontawesome.com/license (Commercial License) Copyright 2024 Fonticons, Inc. --><path d="M208 64H192V96h16 32v48.6C123.8 152.8 32 249.7 32 368v16H64V368c0-106 86-192 192-192s192 86 192 192v16h32V368c0-118.3-91.8-215.2-208-223.4V96h32 16V64H304 256 208zM16 416H0v32H16 496h16V416H496 16z"/></svg>

<svg xmlns="http://www.w3.org/2000/svg" viewBox="0 0 512 512"><!--! Font Awesome Pro 6.6.0 by @fontawesome - https://fontawesome.com License - https://fontawesome.com/license (Commercial License) Copyright 2024 Fonticons, Inc. --><path d="M208 64l-16 0 0 32 16 0 32 0 0 48.6C123.8 152.8 32 249.7 32 368l0 16 32 0 0-16c0-106 86-192 192-192s192 86 192 192l0 16 32 0 0-16c0-118.3-91.8-215.2-208-223.4L272 96l32 0 16 0 0-32-16 0-48 0-48 0zM16 416L0 416l0 32 16 0 480 0 16 0 0-32-16 0L16 416z"/></svg>
